X: 95
T:Manus Lunny's Terra Cotta Plower Pop
M:6/8
L:1/8
C:Phil Cunningham
R:Double Jig
N:Also played in D
Z:Robert Greenway
K:G
~D3 DEG|B2d BAG|G2g edB|deg b2a|!
age ~g3|edB deg|age edB|dBG A3:|!
|:~D3 A2B|cBA BGE|~D3 A2F|GEA GEA|!
~D3 A2B|cBA BGE|~G3 GEA|~D3 D3:|!
<end>
<start>
